svg/color/lien.svg

<?xml version="1.0" encoding="UTF-8" ?>
<!DOCTYPE svg PUBLIC "-//W3C//DTD SVG 1.1//EN" "http://www.w3.org/Graphics/SVG/1.1/DTD/svg11.dtd">
<svg width="250pt" height="250pt" viewBox="0 0 250 250" version="1.1" xmlns="http://www.w3.org/2000/svg">
<g id="#ffffffff">
<path fill="#ffffff" opacity="1.00" d=" M 0.00 0.00 L 119.54 0.00 C 112.30 0.39 105.08 1.38 97.99 2.91 C 68.39 9.38 41.43 27.07 23.75 51.68 C 9.55 71.05 1.50 94.61 0.00 118.52 L 0.00 0.00 Z" />
<path fill="#ffffff" opacity="1.00" d=" M 131.37 0.00 L 250.00 0.00 L 250.00 119.67 C 248.66 88.68 235.36 58.51 213.45 36.56 C 191.75 14.86 162.00 1.69 131.37 0.00 Z" />
<path fill="#ffffff" opacity="1.00" d=" M 70.80 70.80 C 79.81 70.76 88.83 70.80 97.84 70.79 C 97.88 97.87 97.79 124.95 97.88 152.03 C 125.07 125.06 152.04 97.87 179.18 70.84 C 179.25 106.96 179.21 143.08 179.20 179.20 C 143.07 179.23 106.93 179.21 70.79 179.21 C 70.79 143.07 70.77 106.94 70.80 70.80 Z" />
<path fill="#ffffff" opacity="1.00" d=" M 220.11 206.09 C 238.01 185.40 248.38 158.65 250.00 131.40 L 250.00 250.00 L 130.32 250.00 C 164.60 248.52 198.01 232.39 220.11 206.09 Z" />
<path fill="#ffffff" opacity="1.00" d=" M 0.00 132.80 C 1.19 144.84 3.39 156.85 7.66 168.20 C 13.86 185.15 23.91 200.59 36.55 213.43 C 58.24 235.14 87.99 248.30 118.61 250.00 L 0.00 250.00 L 0.00 132.80 Z" />
</g>
<g id="#0df2d4ff">
<path fill="#0df2d4" opacity="1.00" d=" M 119.54 0.00 L 131.37 0.00 C 162.00 1.69 191.75 14.86 213.45 36.56 C 202.03 47.99 190.59 59.40 179.18 70.84 C 152.04 97.87 125.07 125.06 97.88 152.03 C 97.79 124.95 97.88 97.87 97.84 70.79 C 97.96 48.16 97.66 25.53 97.99 2.91 C 105.08 1.38 112.30 0.39 119.54 0.00 Z" />
</g>
<g id="#49ffe7ff">
<path fill="#49ffe7" opacity="1.00" d=" M 23.75 51.68 C 41.43 27.07 68.39 9.38 97.99 2.91 C 97.66 25.53 97.96 48.16 97.84 70.79 C 88.83 70.80 79.81 70.76 70.80 70.80 C 70.77 106.94 70.79 143.07 70.79 179.21 C 59.37 190.61 47.98 202.04 36.55 213.43 C 23.91 200.59 13.86 185.15 7.66 168.20 C 3.39 156.85 1.19 144.84 0.00 132.80 L 0.00 118.52 C 1.50 94.61 9.55 71.05 23.75 51.68 Z" />
</g>
<g id="#12b2adff">
<path fill="#12b2ad" opacity="1.00" d=" M 213.45 36.56 C 235.36 58.51 248.66 88.68 250.00 119.67 L 250.00 131.40 C 248.38 158.65 238.01 185.40 220.11 206.09 C 198.01 232.39 164.60 248.52 130.32 250.00 L 118.61 250.00 C 87.99 248.30 58.24 235.14 36.55 213.43 C 47.98 202.04 59.37 190.61 70.79 179.21 C 106.93 179.21 143.07 179.23 179.20 179.20 C 179.21 143.08 179.25 106.96 179.18 70.84 C 190.59 59.40 202.03 47.99 213.45 36.56 Z" />
</g>
</svg>

<?xml version="1.0" encoding="utf-8"?>
<!-- Generator: Adobe Illustrator 26.0.3, SVG Export Plug-In . SVG Version: 6.00 Build 0)  -->
<svg version="1.1" id="Layer_1" xmlns="http://www.w3.org/2000/svg" xmlns:xlink="http://www.w3.org/1999/xlink" x="0px" y="0px"
	 viewBox="0 0 250 250" style="enable-background:new 0 0 250 250;" xml:space="preserve">
<style type="text/css">
	.st0{fill:#FFFFFF;}
	.st1{fill:#0DF2D4;}
	.st2{fill:#49FFE7;}
	.st3{fill:#12B2AD;}
</style>
<g id="_x23_ffffffff">
	<path class="st0" d="M70.8,70.8c9,0,18,0,27,0c0,27.1,0,54.2,0,81.2c27.2-27,54.2-54.2,81.3-81.2c0.1,36.1,0,72.2,0,108.4
		c-36.1,0-72.3,0-108.4,0C70.8,143.1,70.8,106.9,70.8,70.8z"/>
</g>
<g id="_x23_0df2d4ff">
	<path class="st1" d="M119.5,0h11.8c30.6,1.7,60.4,14.9,82.1,36.6C202,48,190.6,59.4,179.2,70.8c-27.1,27-54.1,54.2-81.3,81.2
		c-0.1-27.1,0-54.2,0-81.2C98,48.2,97.7,25.5,98,2.9C105.1,1.4,112.3,0.4,119.5,0z"/>
</g>
<g id="_x23_49ffe7ff">
	<path class="st2" d="M23.8,51.7C41.4,27.1,68.4,9.4,98,2.9c-0.3,22.6,0,45.2-0.2,67.9c-9,0-18,0-27,0c0,36.1,0,72.3,0,108.4
		C59.4,190.6,48,202,36.5,213.4c-12.6-12.8-22.7-28.3-28.9-45.2c-4.3-11.3-6.5-23.4-7.7-35.4v-14.3C1.5,94.6,9.6,71.1,23.8,51.7z"/>
</g>
<g id="_x23_12b2adff">
	<path class="st3" d="M213.4,36.6c21.9,21.9,35.2,52.1,36.6,83.1v11.7c-1.6,27.2-12,54-29.9,74.7c-22.1,26.3-55.5,42.4-89.8,43.9
		h-11.7c-30.6-1.7-60.4-14.9-82.1-36.6C48,202,59.4,190.6,70.8,179.2c36.1,0,72.3,0,108.4,0c0-36.1,0.1-72.2,0-108.4
		C190.6,59.4,202,48,213.4,36.6z"/>
</g>
</svg>
